assets/dude/That–Merle.svg

<svg width="379" height="105" viewBox="0 0 379 105" fill="none" xmlns="http://www.w3.org/2000/svg">
<path d="M88.6736 11.28C88.6736 10.02 87.5536 10.02 87.4136 10.02C82.7936 10.02 78.5936 5.95997 78.5936 1.47997C78.5936 0.21997 77.4736 0.219971 77.3336 0.219971C72.8536 0.219971 61.7936 2.59997 44.5736 2.59997C27.3536 2.59997 16.2936 0.219971 11.8136 0.219971C11.6736 0.219971 10.5536 0.21997 10.5536 1.47997C10.5536 5.95997 6.35363 10.02 1.73363 10.02C1.59363 10.02 0.473633 10.02 0.473633 11.28C0.473633 12.54 2.99363 25.28 2.99363 37.74V49.08C2.99363 49.78 3.55363 50.34 4.25363 50.34H11.8136C12.5136 50.34 13.0736 49.78 13.0736 49.08V47.82C13.0736 42.92 16.9936 39 21.8936 39H38.2736C38.9736 39 39.5336 39.56 39.5336 40.26V65.46C39.5336 66.16 38.9736 66.72 38.2736 66.72H24.4136C23.7136 66.72 23.1536 67.28 23.1536 67.98C23.1536 80.44 20.6336 93.18 20.6336 94.44C20.6336 95.7 21.7536 95.7 21.8936 95.7C26.5136 95.7 30.7136 98.78 30.7136 103.26C30.7136 104.52 31.8336 104.52 31.9736 104.52C34.9136 104.52 38.8336 103.26 44.5736 103.26C50.3136 103.26 54.2336 104.52 57.1736 104.52C57.3136 104.52 58.4336 104.52 58.4336 103.26C58.4336 98.78 62.6336 95.7 67.2536 95.7C67.3936 95.7 68.5136 95.7 68.5136 94.44C68.5136 93.18 65.9936 80.44 65.9936 67.98C65.9936 67.28 65.4336 66.72 64.7336 66.72H50.8736C50.1736 66.72 49.6136 66.16 49.6136 65.46V40.26C49.6136 39.56 50.1736 39 50.8736 39H67.2536C72.1536 39 76.0736 42.92 76.0736 47.82V49.08C76.0736 49.78 76.6336 50.34 77.3336 50.34H84.8936C85.5936 50.34 86.1536 49.78 86.1536 49.08V37.74C86.1536 25.28 88.6736 12.54 88.6736 11.28Z" fill="#FF1C31"/>
<path d="M191.022 66.72H177.162C176.462 66.72 175.902 66.16 175.902 65.46V40.26C175.902 39.56 176.462 39 177.162 39H191.022C191.722 39 192.282 38.44 192.282 37.74C192.282 25.28 194.802 12.54 194.802 11.28C194.802 10.02 193.682 10.02 193.542 10.02C188.922 10.02 184.722 6.93998 184.722 2.45998C184.722 1.19998 183.602 1.19998 183.462 1.19998C180.522 1.19998 176.602 2.45998 170.862 2.45998C165.122 2.45998 161.202 1.19998 158.262 1.19998C158.122 1.19998 157.002 1.19998 157.002 2.45998C157.002 6.93998 152.802 10.02 148.182 10.02C148.042 10.02 146.922 10.02 146.922 11.28C146.922 12.54 149.442 25.28 149.442 37.74C149.442 38.44 150.002 39 150.702 39H164.562C165.262 39 165.822 39.56 165.822 40.26V47.82C165.822 48.52 165.262 49.08 164.562 49.08H124.242C123.542 49.08 122.982 48.52 122.982 47.82V40.26C122.982 39.56 123.542 39 124.242 39H138.102C138.802 39 139.362 38.44 139.362 37.74C139.362 25.28 141.882 12.54 141.882 11.28C141.882 10.02 140.762 10.02 140.622 10.02C136.002 10.02 131.802 6.93998 131.802 2.45998C131.802 1.19998 130.682 1.19998 130.542 1.19998C127.602 1.19998 123.682 2.45998 117.942 2.45998C112.202 2.45998 108.282 1.19998 105.342 1.19998C105.202 1.19998 104.082 1.19998 104.082 2.45998C104.082 6.93998 99.8824 10.02 95.2624 10.02C95.1224 10.02 94.0024 10.02 94.0024 11.28C94.0024 12.54 96.5224 25.28 96.5224 37.74C96.5224 38.44 97.0824 39 97.7824 39H111.642C112.342 39 112.902 39.56 112.902 40.26V65.46C112.902 66.16 112.342 66.72 111.642 66.72H97.7824C97.0824 66.72 96.5224 67.28 96.5224 67.98C96.5224 80.44 94.0024 93.18 94.0024 94.44C94.0024 95.7 95.1224 95.7 95.2624 95.7C99.8824 95.7 104.082 98.78 104.082 103.26C104.082 104.52 105.202 104.52 105.342 104.52C108.282 104.52 112.202 103.26 117.942 103.26C123.682 103.26 127.602 104.52 130.542 104.52C130.682 104.52 131.802 104.52 131.802 103.26C131.802 98.78 136.002 95.7 140.622 95.7C140.762 95.7 141.882 95.7 141.882 94.44C141.882 93.18 139.362 80.44 139.362 67.98C139.362 67.28 138.802 66.72 138.102 66.72H124.242C123.542 66.72 122.982 66.16 122.982 65.46V57.9C122.982 57.2 123.542 56.64 124.242 56.64H164.562C165.262 56.64 165.822 57.2 165.822 57.9V65.46C165.822 66.16 165.262 66.72 164.562 66.72H150.702C150.002 66.72 149.442 67.28 149.442 67.98C149.442 80.44 146.922 93.18 146.922 94.44C146.922 95.7 148.042 95.7 148.182 95.7C152.802 95.7 157.002 98.78 157.002 103.26C157.002 104.52 158.122 104.52 158.262 104.52C161.202 104.52 165.122 103.26 170.862 103.26C176.602 103.26 180.522 104.52 183.462 104.52C183.602 104.52 184.722 104.52 184.722 103.26C184.722 98.78 188.922 95.7 193.542 95.7C193.682 95.7 194.802 95.7 194.802 94.44C194.802 93.18 192.282 80.44 192.282 67.98C192.282 67.28 191.722 66.72 191.022 66.72Z" fill="#FF1C31"/>
<path d="M297.953 67.98C297.953 67.28 297.393 66.72 296.693 66.72H284.513C283.813 66.72 283.113 66.16 282.413 65.04L266.733 40.4C266.733 40.4 266.453 39.98 266.453 39.56C266.453 39.28 266.733 39 267.293 39H270.233C270.933 39 271.493 38.44 271.493 37.74C271.493 25.28 274.013 12.54 274.013 11.28C274.013 10.02 272.893 10.02 272.753 10.02C268.133 10.02 263.933 6.93998 263.933 2.45998C263.933 1.19998 262.813 1.19998 262.673 1.19998C259.733 1.19998 255.813 2.45998 250.073 2.45998C244.333 2.45998 240.413 1.19998 237.473 1.19998C237.333 1.19998 236.213 1.19998 236.213 2.45998C236.213 6.93998 232.013 10.02 227.393 10.02C227.253 10.02 226.133 10.02 226.133 11.28C226.133 12.54 228.653 25.28 228.653 37.74C228.653 38.44 229.213 39 229.913 39H234.533C235.093 39 235.373 39.28 235.373 39.56C235.373 39.98 234.953 40.4 234.953 40.4L219.273 65.04C218.713 66.16 218.293 66.72 217.593 66.72H203.453C202.753 66.72 202.193 67.28 202.193 67.98C202.193 80.44 199.673 93.18 199.673 94.44C199.673 95.7 200.793 95.7 200.933 95.7C205.553 95.7 209.753 98.78 209.753 103.26C209.753 104.52 210.873 104.52 211.013 104.52C213.953 104.52 217.873 103.26 223.613 103.26C229.353 103.26 233.273 104.52 236.213 104.52C236.353 104.52 237.473 104.52 237.473 103.26C237.473 98.78 241.673 95.7 246.293 95.7C246.433 95.7 247.553 95.7 247.553 94.44C247.553 93.18 245.033 80.44 245.033 67.98C245.033 67.28 244.473 66.72 243.773 66.72H230.473C229.913 66.72 229.493 66.72 229.493 66.44C229.493 66.02 229.773 65.6 229.773 65.6L233.553 59.58C234.253 58.46 234.673 58.46 235.373 58.46H262.393C263.093 58.46 263.513 59.02 264.213 60.14L267.433 65.32C267.433 65.32 267.713 65.74 267.713 66.16C267.713 66.44 267.433 66.72 266.873 66.72H256.373C255.673 66.72 255.113 67.28 255.113 67.98C255.113 80.44 252.593 93.18 252.593 94.44C252.593 95.7 253.713 95.7 253.853 95.7C258.473 95.7 262.673 98.78 262.673 103.26C262.673 104.52 263.793 104.52 263.933 104.52C266.873 104.52 270.793 103.26 276.533 103.26C282.273 103.26 286.193 104.52 289.133 104.52C289.273 104.52 290.393 104.52 290.393 103.26C290.393 98.78 294.593 95.7 299.213 95.7C299.353 95.7 300.473 95.7 300.473 94.44C300.473 93.18 297.953 80.44 297.953 67.98ZM256.933 50.9H240.413C239.853 50.9 239.573 50.62 239.573 50.34C239.573 49.92 239.853 49.5 239.853 49.5L245.313 40.68C246.013 39.56 246.433 39 247.133 39H250.073C250.773 39 251.193 39.56 251.893 40.68L257.493 49.5C257.493 49.5 257.773 49.92 257.773 50.34C257.773 50.62 257.493 50.9 256.933 50.9Z" fill="#FF1C31"/>
<path d="M378.517 11.28C378.517 10.02 377.397 10.02 377.257 10.02C372.637 10.02 368.437 5.95997 368.437 1.47997C368.437 0.21997 367.317 0.219971 367.177 0.219971C362.697 0.219971 351.637 2.59997 334.417 2.59997C317.197 2.59997 306.137 0.219971 301.657 0.219971C301.517 0.219971 300.397 0.21997 300.397 1.47997C300.397 5.95997 296.197 10.02 291.577 10.02C291.437 10.02 290.317 10.02 290.317 11.28C290.317 12.54 292.837 25.28 292.837 37.74V49.08C292.837 49.78 293.397 50.34 294.097 50.34H301.657C302.357 50.34 302.917 49.78 302.917 49.08V47.82C302.917 42.92 306.837 39 311.737 39H328.117C328.817 39 329.377 39.56 329.377 40.26V65.46C329.377 66.16 328.817 66.72 328.117 66.72H314.257C313.557 66.72 312.997 67.28 312.997 67.98C312.997 80.44 310.477 93.18 310.477 94.44C310.477 95.7 311.597 95.7 311.737 95.7C316.357 95.7 320.557 98.78 320.557 103.26C320.557 104.52 321.677 104.52 321.817 104.52C324.757 104.52 328.677 103.26 334.417 103.26C340.157 103.26 344.077 104.52 347.017 104.52C347.157 104.52 348.277 104.52 348.277 103.26C348.277 98.78 352.477 95.7 357.097 95.7C357.237 95.7 358.357 95.7 358.357 94.44C358.357 93.18 355.837 80.44 355.837 67.98C355.837 67.28 355.277 66.72 354.577 66.72H340.717C340.017 66.72 339.457 66.16 339.457 65.46V40.26C339.457 39.56 340.017 39 340.717 39H357.097C361.997 39 365.917 42.92 365.917 47.82V49.08C365.917 49.78 366.477 50.34 367.177 50.34H374.737C375.437 50.34 375.997 49.78 375.997 49.08V37.74C375.997 25.28 378.517 12.54 378.517 11.28Z" fill="#FF1C31"/>
</svg>

<svg xmlns="http://www.w3.org/2000/svg" fill="none" viewBox="0 0 379 105"><path fill="#FF1C31" d="M88.674 11.28c0-1.26-1.12-1.26-1.26-1.26-4.62 0-8.82-4.06-8.82-8.54 0-1.26-1.12-1.26-1.26-1.26-4.48 0-15.54 2.38-32.76 2.38S16.294.22 11.814.22c-.14 0-1.26 0-1.26 1.26 0 4.48-4.2 8.54-8.82 8.54-.14 0-1.26 0-1.26 1.26s2.52 14 2.52 26.46v11.34c0 .7.56 1.26 1.26 1.26h7.56c.7 0 1.26-.56 1.26-1.26v-1.26c0-4.9 3.92-8.82 8.82-8.82h16.38c.7 0 1.26.56 1.26 1.26v25.2c0 .7-.56 1.26-1.26 1.26h-13.86c-.7 0-1.26.56-1.26 1.26 0 12.46-2.52 25.2-2.52 26.46 0 1.26 1.12 1.26 1.26 1.26 4.62 0 8.82 3.08 8.82 7.56 0 1.26 1.12 1.26 1.26 1.26 2.94 0 6.86-1.26 12.6-1.26 5.74 0 9.66 1.26 12.6 1.26.14 0 1.26 0 1.26-1.26 0-4.48 4.2-7.56 8.82-7.56.14 0 1.26 0 1.26-1.26s-2.52-14-2.52-26.46c0-.7-.56-1.26-1.26-1.26h-13.86c-.7 0-1.26-.56-1.26-1.26v-25.2c0-.7.56-1.26 1.26-1.26h16.38c4.9 0 8.82 3.92 8.82 8.82v1.26c0 .7.56 1.26 1.26 1.26h7.56c.7 0 1.26-.56 1.26-1.26V37.74c0-12.46 2.52-25.2 2.52-26.46zM191.022 66.72h-13.86c-.7 0-1.26-.56-1.26-1.26v-25.2c0-.7.56-1.26 1.26-1.26h13.86c.7 0 1.26-.56 1.26-1.26 0-12.46 2.52-25.2 2.52-26.46 0-1.26-1.12-1.26-1.26-1.26-4.62 0-8.82-3.08-8.82-7.56 0-1.26-1.12-1.26-1.26-1.26-2.94 0-6.86 1.26-12.6 1.26-5.74 0-9.66-1.26-12.6-1.26-.14 0-1.26 0-1.26 1.26 0 4.48-4.2 7.56-8.82 7.56-.14 0-1.26 0-1.26 1.26s2.52 14 2.52 26.46c0 .7.56 1.26 1.26 1.26h13.86c.7 0 1.26.56 1.26 1.26v7.56c0 .7-.56 1.26-1.26 1.26h-40.32c-.7 0-1.26-.56-1.26-1.26v-7.56c0-.7.56-1.26 1.26-1.26h13.86c.7 0 1.26-.56 1.26-1.26 0-12.46 2.52-25.2 2.52-26.46 0-1.26-1.12-1.26-1.26-1.26-4.62 0-8.82-3.08-8.82-7.56 0-1.26-1.12-1.26-1.26-1.26-2.94 0-6.86 1.26-12.6 1.26-5.74 0-9.66-1.26-12.6-1.26-.14 0-1.26 0-1.26 1.26 0 4.48-4.2 7.56-8.82 7.56-.14 0-1.26 0-1.26 1.26s2.52 14 2.52 26.46c0 .7.56 1.26 1.26 1.26h13.86c.7 0 1.26.56 1.26 1.26v25.2c0 .7-.56 1.26-1.26 1.26h-13.86c-.7 0-1.26.56-1.26 1.26 0 12.46-2.52 25.2-2.52 26.46 0 1.26 1.12 1.26 1.26 1.26 4.62 0 8.82 3.08 8.82 7.56 0 1.26 1.12 1.26 1.26 1.26 2.94 0 6.86-1.26 12.6-1.26 5.74 0 9.66 1.26 12.6 1.26.14 0 1.26 0 1.26-1.26 0-4.48 4.2-7.56 8.82-7.56.14 0 1.26 0 1.26-1.26s-2.52-14-2.52-26.46c0-.7-.56-1.26-1.26-1.26h-13.86c-.7 0-1.26-.56-1.26-1.26V57.9c0-.7.56-1.26 1.26-1.26h40.32c.7 0 1.26.56 1.26 1.26v7.56c0 .7-.56 1.26-1.26 1.26h-13.86c-.7 0-1.26.56-1.26 1.26 0 12.46-2.52 25.2-2.52 26.46 0 1.26 1.12 1.26 1.26 1.26 4.62 0 8.82 3.08 8.82 7.56 0 1.26 1.12 1.26 1.26 1.26 2.94 0 6.86-1.26 12.6-1.26 5.74 0 9.66 1.26 12.6 1.26.14 0 1.26 0 1.26-1.26 0-4.48 4.2-7.56 8.82-7.56.14 0 1.26 0 1.26-1.26s-2.52-14-2.52-26.46c0-.7-.56-1.26-1.26-1.26zM297.953 67.98c0-.7-.56-1.26-1.26-1.26h-12.18c-.7 0-1.4-.56-2.1-1.68l-15.68-24.64s-.28-.42-.28-.84c0-.28.28-.56.84-.56h2.94c.7 0 1.26-.56 1.26-1.26 0-12.46 2.52-25.2 2.52-26.46 0-1.26-1.12-1.26-1.26-1.26-4.62 0-8.82-3.08-8.82-7.56 0-1.26-1.12-1.26-1.26-1.26-2.94 0-6.86 1.26-12.6 1.26-5.74 0-9.66-1.26-12.6-1.26-.14 0-1.26 0-1.26 1.26 0 4.48-4.2 7.56-8.82 7.56-.14 0-1.26 0-1.26 1.26s2.52 14 2.52 26.46c0 .7.56 1.26 1.26 1.26h4.62c.56 0 .84.28.84.56 0 .42-.42.84-.42.84l-15.68 24.64c-.56 1.12-.98 1.68-1.68 1.68h-14.14c-.7 0-1.26.56-1.26 1.26 0 12.46-2.52 25.2-2.52 26.46 0 1.26 1.12 1.26 1.26 1.26 4.62 0 8.82 3.08 8.82 7.56 0 1.26 1.12 1.26 1.26 1.26 2.94 0 6.86-1.26 12.6-1.26 5.74 0 9.66 1.26 12.6 1.26.14 0 1.26 0 1.26-1.26 0-4.48 4.2-7.56 8.82-7.56.14 0 1.26 0 1.26-1.26s-2.52-14-2.52-26.46c0-.7-.56-1.26-1.26-1.26h-13.3c-.56 0-.98 0-.98-.28 0-.42.28-.84.28-.84l3.78-6.02c.7-1.12 1.12-1.12 1.82-1.12h27.02c.7 0 1.12.56 1.82 1.68l3.22 5.18s.28.42.28.84c0 .28-.28.56-.84.56h-10.5c-.7 0-1.26.56-1.26 1.26 0 12.46-2.52 25.2-2.52 26.46 0 1.26 1.12 1.26 1.26 1.26 4.62 0 8.82 3.08 8.82 7.56 0 1.26 1.12 1.26 1.26 1.26 2.94 0 6.86-1.26 12.6-1.26 5.74 0 9.66 1.26 12.6 1.26.14 0 1.26 0 1.26-1.26 0-4.48 4.2-7.56 8.82-7.56.14 0 1.26 0 1.26-1.26s-2.52-14-2.52-26.46zm-41.02-17.08h-16.52c-.56 0-.84-.28-.84-.56 0-.42.28-.84.28-.84l5.46-8.82c.7-1.12 1.12-1.68 1.82-1.68h2.94c.7 0 1.12.56 1.82 1.68l5.6 8.82s.28.42.28.84c0 .28-.28.56-.84.56zM378.517 11.28c0-1.26-1.12-1.26-1.26-1.26-4.62 0-8.82-4.06-8.82-8.54 0-1.26-1.12-1.26-1.26-1.26-4.48 0-15.54 2.38-32.76 2.38S306.137.22 301.657.22c-.14 0-1.26 0-1.26 1.26 0 4.48-4.2 8.54-8.82 8.54-.14 0-1.26 0-1.26 1.26s2.52 14 2.52 26.46v11.34c0 .7.56 1.26 1.26 1.26h7.56c.7 0 1.26-.56 1.26-1.26v-1.26c0-4.9 3.92-8.82 8.82-8.82h16.38c.7 0 1.26.56 1.26 1.26v25.2c0 .7-.56 1.26-1.26 1.26h-13.86c-.7 0-1.26.56-1.26 1.26 0 12.46-2.52 25.2-2.52 26.46 0 1.26 1.12 1.26 1.26 1.26 4.62 0 8.82 3.08 8.82 7.56 0 1.26 1.12 1.26 1.26 1.26 2.94 0 6.86-1.26 12.6-1.26 5.74 0 9.66 1.26 12.6 1.26.14 0 1.26 0 1.26-1.26 0-4.48 4.2-7.56 8.82-7.56.14 0 1.26 0 1.26-1.26s-2.52-14-2.52-26.46c0-.7-.56-1.26-1.26-1.26h-13.86c-.7 0-1.26-.56-1.26-1.26v-25.2c0-.7.56-1.26 1.26-1.26h16.38c4.9 0 8.82 3.92 8.82 8.82v1.26c0 .7.56 1.26 1.26 1.26h7.56c.7 0 1.26-.56 1.26-1.26V37.74c0-12.46 2.52-25.2 2.52-26.46z"/></svg>
